ui/StatusQ/src/assets/img/icons/chevron-down.svg

<svg fill="none" height="24" viewBox="0 0 24 24" width="24" xmlns="http://www.w3.org/2000/svg"><path clip-rule="evenodd" d="m6.46967 9.46967c.29289-.29289.76777-.29289 1.06066 0l4.11607 4.11613c.1953.1952.5119.1952.7072 0l4.1161-4.11613c.2929-.29289.7677-.29289 1.0606 0s.2929.76773 0 1.06063l-4.6464 4.6465c-.4882.4881-1.2796.4881-1.7678 0l-4.64643-4.6465c-.29289-.2929-.29289-.76774 0-1.06063z" fill="#000" fill-rule="evenodd"/></svg>

<svg width="24" height="24" viewBox="0 0 24 24" fill="none" xmlns="http://www.w3.org/2000/svg">
<path fill-rule="evenodd" clip-rule="evenodd" d="M6.46967 9.46967C6.76256 9.17678 7.23744 9.17678 7.53033 9.46967L11.6464 13.5858C11.8417 13.781 12.1583 13.781 12.3536 13.5858L16.4697 9.46967C16.7626 9.17678 17.2374 9.17678 17.5303 9.46967C17.8232 9.76256 17.8232 10.2374 17.5303 10.5303L12.8839 15.1768C12.3957 15.6649 11.6043 15.6649 11.1161 15.1768L6.46967 10.5303C6.17678 10.2374 6.17678 9.76256 6.46967 9.46967Z" fill="black"/>
</svg>
